packages/foundations/assets/icons/functional/images/audio & video/volume_up_24.svg

<svg width="24" height="24" viewBox="0 0 24 24" fill="none" xmlns="http://www.w3.org/2000/svg">
<g clip-path="url(#clip0_184_438)">
<path fill-rule="evenodd" clip-rule="evenodd" d="M11.42 4.96707C11.988 4.96707 12.414 5.44107 12.414 5.98507V18.0641C12.414 18.6321 11.988 19.0821 11.42 19.0821C11.23 19.0821 10.994 19.0341 10.851 18.9161L6.56502 16.0271H4.86002C4.5298 16.0289 4.20249 15.9652 3.89706 15.8397C3.59163 15.7142 3.31414 15.5292 3.08069 15.2957C2.84723 15.0621 2.66243 14.7846 2.53701 14.4791C2.41159 14.1736 2.34803 13.8463 2.35002 13.5161V10.5081C2.35002 9.08807 3.46302 7.99807 4.86002 7.99807H6.56502L10.851 5.13307C11.021 5.02007 11.231 4.96707 11.42 4.96707ZM10.402 7.85707L7.44202 9.82207C7.27202 9.93407 7.06402 10.0111 6.87302 10.0111H4.86002C4.79607 10.0088 4.73232 10.0193 4.6725 10.0421C4.61268 10.0648 4.55801 10.0992 4.51171 10.1434C4.4654 10.1876 4.42839 10.2406 4.40286 10.2992C4.37733 10.3579 4.36378 10.4211 4.36302 10.4851V13.5151C4.36355 13.6468 4.41604 13.773 4.50911 13.8663C4.60217 13.9595 4.72828 14.0123 4.86002 14.0131H6.87302C7.06302 14.0131 7.27302 14.0891 7.44102 14.2031L10.401 16.1921V7.85607L10.402 7.85707ZM14.901 16.8071C15.091 16.8071 15.28 16.7371 15.446 16.6421C16.985 15.6001 17.814 13.8241 17.814 11.9771C17.814 10.1301 16.961 8.40107 15.446 7.33507C15.2816 7.23397 15.0939 7.17681 14.901 7.16907C14.6438 7.17012 14.3975 7.27276 14.2156 7.45463C14.0337 7.6365 13.9311 7.88287 13.93 8.14007C13.9288 8.29903 13.9671 8.4558 14.0415 8.5963C14.1158 8.73681 14.2239 8.85665 14.356 8.94507C15.351 9.60907 15.872 10.7691 15.872 11.9771C15.872 13.1841 15.351 14.3451 14.356 15.0311C14.096 15.2211 13.93 15.5291 13.93 15.8371C13.93 16.3571 14.357 16.8071 14.901 16.8071ZM16.819 19.6971C16.9877 19.6973 17.1526 19.6475 17.293 19.5541C18.617 18.7866 19.7163 17.685 20.481 16.3593C21.2456 15.0336 21.6487 13.5304 21.65 12.0001C21.6519 10.4658 21.2503 8.95808 20.4856 7.62801C19.7209 6.29795 18.6199 5.19234 17.293 4.42207C17.1504 4.33619 16.9853 4.29509 16.819 4.30407C16.299 4.30407 15.849 4.70707 15.849 5.25107C15.849 5.58307 16.038 5.91407 16.345 6.10407C17.3759 6.70483 18.2311 7.56544 18.8254 8.60001C19.4198 9.63459 19.7324 10.8069 19.732 12.0001C19.732 14.4161 18.429 16.6651 16.345 17.8971C16.1961 17.9787 16.0715 18.0985 15.9842 18.2442C15.8968 18.3899 15.8498 18.5562 15.848 18.7261C15.848 19.2461 16.298 19.6971 16.819 19.6971Z" fill="#1A1C1F"/>
</g>
<defs>
<clipPath id="clip0_184_438">
<rect width="24" height="24" fill="white"/>
</clipPath>
</defs>
</svg>

<svg xmlns="http://www.w3.org/2000/svg" width="24" height="24" fill="none"><g clip-path="url(#a)"><path fill="#1A1C1F" fill-rule="evenodd" d="M11.42 4.967c.568 0 .994.474.994 1.018v12.08c0 .567-.426 1.017-.994 1.017-.19 0-.426-.048-.569-.166l-4.286-2.889H4.86a2.5 2.5 0 0 1-2.51-2.51v-3.009c0-1.42 1.113-2.51 2.51-2.51h1.705l4.286-2.865c.17-.113.38-.166.569-.166m-1.018 2.89-2.96 1.965c-.17.112-.378.19-.569.19H4.86a.48.48 0 0 0-.497.473v3.03a.5.5 0 0 0 .497.498h2.013c.19 0 .4.076.568.19l2.96 1.99zm4.499 8.95c.19 0 .379-.07.545-.165 1.539-1.042 2.368-2.818 2.368-4.665s-.853-3.576-2.368-4.642a1.1 1.1 0 0 0-.545-.166.975.975 0 0 0-.86 1.427.96.96 0 0 0 .315.35c.995.663 1.516 1.823 1.516 3.031 0 1.207-.521 2.368-1.516 3.054-.26.19-.426.498-.426.806 0 .52.427.97.971.97m1.918 2.89c.169 0 .334-.05.474-.143a8.74 8.74 0 0 0 3.193-11.926 8.75 8.75 0 0 0-3.193-3.206.83.83 0 0 0-.474-.118c-.52 0-.97.403-.97.947 0 .332.189.663.496.853A6.82 6.82 0 0 1 19.732 12c0 2.416-1.303 4.665-3.387 5.897a.96.96 0 0 0-.497.83c0 .52.45.97.971.97" clip-rule="evenodd"/></g><defs><clipPath id="a"><path fill="#fff" d="M0 0h24v24H0z"/></clipPath></defs></svg>
